X: 501
T: A.A. Cameron's
R: strathspey
M: 4/4
K: Amixolydian
e<A A2 B>G d>B|e<A A2 d>g (3fed|e<A A2 B>G d>B|g<B G>B d>g (3fed:|
c<e e>f g>e a>e|c<e e>f g>e (3fed|c<e e>f g>e a>e|d<B G>B d>g (3fed:|

